x-pack/platform/plugins/shared/fleet/public/assets/arrow_right_curve_under.svg

<svg width="148" height="96" viewBox="0 0 148 96" fill="none" xmlns="http://www.w3.org/2000/svg">
<g clip-path="url(#clip0_928_269282)">
<path d="M-7.63842 21.0696C11.0148 41.96 36.7463 55.2601 64.6072 58.4121C78.8695 60.13 93.3204 59.2482 107.254 55.81C120.807 52.4543 136.918 46.6715 146.888 36.5373C147.068 36.347 147.173 36.0987 147.185 35.8373C147.197 35.5759 147.115 35.3186 146.953 35.1119C146.791 34.9053 146.561 34.7628 146.304 34.7103C146.046 34.6578 145.779 34.6988 145.549 34.8257C132.293 40.9562 120.73 48.6018 106.292 52.251C93.0146 55.603 79.2368 56.5639 65.6084 55.0884C38.1976 52.0198 12.6159 39.797 -6.9691 20.4112C-7.40831 19.9747 -8.0184 20.6902 -7.63475 21.0832L-7.63842 21.0696Z" fill="#DAE0EB"/>
<path d="M143.924 56.3488C146.428 55.1889 146.625 49.8129 147.046 47.5917C147.755 43.8397 148.828 39.9764 149.169 36.162C149.409 33.5382 148.791 32.277 146.009 32.0274C139.359 31.2971 132.663 31.0973 125.984 31.4298C125.823 31.4286 125.667 31.4858 125.545 31.5909C125.424 31.6959 125.345 31.8416 125.323 32.0006C125.302 32.1596 125.339 32.3211 125.429 32.4548C125.518 32.5885 125.653 32.6854 125.809 32.7272C129.916 34.3076 134.191 35.4117 138.549 36.0175C140.196 36.278 142.321 36.1495 144.188 36.3078C144.101 36.7963 144.066 37.3148 143.973 37.6739L142.287 45.2639C141.699 47.951 140.518 52.4395 141.679 56.0874C141.984 56.8936 143.226 56.68 143.924 56.3488Z" fill="#DAE0EB"/>
</g>
<defs>
<clipPath id="clip0_928_269282">
<rect width="148" height="96" fill="white"/>
</clipPath>
</defs>
</svg>

<svg xmlns="http://www.w3.org/2000/svg" width="148" height="96" fill="none"><g fill="#DAE0EB" clip-path="url(#a)"><path d="M-7.638 21.07a114.06 114.06 0 0 0 72.245 37.342 118.8 118.8 0 0 0 42.647-2.602c13.553-3.356 29.664-9.138 39.634-19.273a1.09 1.09 0 0 0 .065-1.425 1.106 1.106 0 0 0-1.404-.286c-13.256 6.13-24.819 13.776-39.257 17.425a115.5 115.5 0 0 1-40.684 2.837A122.57 122.57 0 0 1-6.969 20.411c-.44-.436-1.05.28-.666.672z"/><path d="M143.924 56.349c2.504-1.16 2.701-6.536 3.122-8.757.709-3.752 1.782-7.616 2.123-11.43.24-2.624-.378-3.885-3.16-4.135-6.65-.73-13.346-.93-20.025-.597a.665.665 0 0 0-.661.57.66.66 0 0 0 .486.727 57.5 57.5 0 0 0 12.74 3.29c1.647.261 3.772.133 5.639.29-.087.49-.122 1.008-.215 1.367l-1.686 7.59c-.588 2.687-1.769 7.176-.608 10.823.305.807 1.547.593 2.245.262"/></g><defs><clipPath id="a"><path fill="#fff" d="M0 0h148v96H0z"/></clipPath></defs></svg>
